Catalina-light/actions/16/tools-media-optical-burn-image.svg

<svg xmlns="http://www.w3.org/2000/svg" width="16" height="16" viewBox="0 0 16 16">
 <defs>
  <style id="current-color-scheme" type="text/css">
   .ColorScheme-Text { color:#5c616c; } .ColorScheme-Highlight { color:#5294e2; }
  </style>
 </defs>
 <path style="fill:currentColor" class="ColorScheme-Text" d="M 5.0117188 1 C 4.0125194 1 4.0136719 1.9335938 4.0136719 1.9335938 C 4.0121719 1.9369937 4.0147719 2.5941896 4.0136719 2.6796875 A 6.9999955 6.9998286 0 0 1 7.0039062 2 A 6.9999955 6.9998286 0 0 1 14.003906 9 A 6.9999955 6.9998286 0 0 1 10.605469 14.994141 L 15.003906 14.994141 C 15.003906 14.994141 15.067156 15.00914 15.160156 14.994141 C 15.441156 14.950142 16.003906 14.75953 16.003906 14.060547 L 16.003906 1.9355469 C 16.003906 1.0022697 15.003906 1 15.003906 1 L 5.0117188 1 z M 7 3 C 3.7066 3 1 5.7066 1 9 C 1 12.2934 3.7066 15 7 15 C 10.2934 15 13 12.2934 13 9 C 13 5.7066 10.2934 3 7 3 z M 7 7.2851562 C 7.9417 7.2851562 8.7148438 8.05829 8.7148438 9 C 8.7148438 9.94169 7.94171 10.714844 7 10.714844 C 6.0583 10.714844 5.2851562 9.9417 5.2851562 9 C 5.2851562 8.0583 6.05829 7.2851562 7 7.2851562 z"/>
</svg>

<svg width="16" height="16" viewBox="0 0 16 16" xmlns="http://www.w3.org/2000/svg">
<defs>
<style id="current-color-scheme" type="text/css">.ColorScheme-Text { color:#5c616c; } .ColorScheme-Highlight { color:#5294e2; }</style>
</defs>
<path class="ColorScheme-Text" d="m5.0117 1c-0.9992 0-0.99805 0.93359-0.99805 0.93359-0.0015 0.0033999 0.0011 0.6606 0 0.74609a7 6.9998 0 0 1 2.9902-0.67969 7 6.9998 0 0 1 7 7 7 6.9998 0 0 1-3.3984 5.9941h4.3984s0.06325 0.014999 0.15625 0c0.281-0.043999 0.84375-0.23461 0.84375-0.93359v-12.125c0-0.93328-1-0.93555-1-0.93555h-9.9922zm1.9883 2c-3.2934 0-6 2.7066-6 6s2.7066 6 6 6 6-2.7066 6-6-2.7066-6-6-6zm0 4.2852c0.9417 0 1.7148 0.77313 1.7148 1.7148 0 0.94169-0.77313 1.7148-1.7148 1.7148-0.9417 0-1.7148-0.77314-1.7148-1.7148s0.77313-1.7148 1.7148-1.7148z" fill="#363636"/>
</svg>
